src/img/twitter-icon2.svg

<?xml version="1.0" encoding="UTF-8"?>
<svg xmlns="http://www.w3.org/2000/svg" xmlns:xlink="http://www.w3.org/1999/xlink" viewBox="0 0 50 50" version="1.1" width="50px" height="50px" style="fill:#ffffff">
<g id="surface1">
<path style=" " d="M 34.21875 5.46875 C 28.238281 5.46875 23.375 10.332031 23.375 16.3125 C 23.375 16.671875 23.464844 17.023438 23.5 17.375 C 16.105469 16.667969 9.566406 13.105469 5.125 7.65625 C 4.917969 7.394531 4.597656 7.253906 4.261719 7.277344 C 3.929688 7.300781 3.632813 7.492188 3.46875 7.78125 C 2.535156 9.386719 2 11.234375 2 13.21875 C 2 15.621094 2.859375 17.820313 4.1875 19.625 C 3.929688 19.511719 3.648438 19.449219 3.40625 19.3125 C 3.097656 19.148438 2.726563 19.15625 2.425781 19.335938 C 2.125 19.515625 1.941406 19.839844 1.9375 20.1875 L 1.9375 20.3125 C 1.9375 23.996094 3.84375 27.195313 6.65625 29.15625 C 6.625 29.152344 6.59375 29.164063 6.5625 29.15625 C 6.21875 29.097656 5.871094 29.21875 5.640625 29.480469 C 5.410156 29.742188 5.335938 30.105469 5.4375 30.4375 C 6.554688 33.910156 9.40625 36.5625 12.9375 37.53125 C 10.125 39.203125 6.863281 40.1875 3.34375 40.1875 C 2.582031 40.1875 1.851563 40.148438 1.125 40.0625 C 0.65625 40 0.207031 40.273438 0.0507813 40.71875 C -0.109375 41.164063 0.0664063 41.660156 0.46875 41.90625 C 4.980469 44.800781 10.335938 46.5 16.09375 46.5 C 25.425781 46.5 32.746094 42.601563 37.65625 37.03125 C 42.566406 31.460938 45.125 24.226563 45.125 17.46875 C 45.125 17.183594 45.101563 16.90625 45.09375 16.625 C 46.925781 15.222656 48.5625 13.578125 49.84375 11.65625 C 50.097656 11.285156 50.070313 10.789063 49.777344 10.445313 C 49.488281 10.101563 49 9.996094 48.59375 10.1875 C 48.078125 10.417969 47.476563 10.441406 46.9375 10.625 C 47.648438 9.675781 48.257813 8.652344 48.625 7.5 C 48.75 7.105469 48.613281 6.671875 48.289063 6.414063 C 47.964844 6.160156 47.511719 6.128906 47.15625 6.34375 C 45.449219 7.355469 43.558594 8.066406 41.5625 8.5 C 39.625 6.6875 37.074219 5.46875 34.21875 5.46875 Z M 34.21875 7.46875 C 36.769531 7.46875 39.074219 8.558594 40.6875 10.28125 C 40.929688 10.53125 41.285156 10.636719 41.625 10.5625 C 42.929688 10.304688 44.167969 9.925781 45.375 9.4375 C 44.679688 10.375 43.820313 11.175781 42.8125 11.78125 C 42.355469 12.003906 42.140625 12.53125 42.308594 13.011719 C 42.472656 13.488281 42.972656 13.765625 43.46875 13.65625 C 44.46875 13.535156 45.359375 13.128906 46.3125 12.875 C 45.457031 13.800781 44.519531 14.636719 43.5 15.375 C 43.222656 15.578125 43.070313 15.90625 43.09375 16.25 C 43.109375 16.65625 43.125 17.058594 43.125 17.46875 C 43.125 23.71875 40.726563 30.503906 36.15625 35.6875 C 31.585938 40.871094 24.875 44.5 16.09375 44.5 C 12.105469 44.5 8.339844 43.617188 4.9375 42.0625 C 9.15625 41.738281 13.046875 40.246094 16.1875 37.78125 C 16.515625 37.519531 16.644531 37.082031 16.511719 36.683594 C 16.378906 36.285156 16.011719 36.011719 15.59375 36 C 12.296875 35.941406 9.535156 34.023438 8.0625 31.3125 C 8.117188 31.3125 8.164063 31.3125 8.21875 31.3125 C 9.207031 31.3125 10.183594 31.1875 11.09375 30.9375 C 11.53125 30.808594 11.832031 30.402344 11.816406 29.945313 C 11.800781 29.488281 11.476563 29.097656 11.03125 29 C 7.472656 28.28125 4.804688 25.382813 4.1875 21.78125 C 5.195313 22.128906 6.226563 22.402344 7.34375 22.4375 C 7.800781 22.464844 8.214844 22.179688 8.355469 21.746094 C 8.496094 21.3125 8.324219 20.835938 7.9375 20.59375 C 5.5625 19.003906 4 16.296875 4 13.21875 C 4 12.078125 4.296875 11.03125 4.6875 10.03125 C 9.6875 15.519531 16.6875 19.164063 24.59375 19.5625 C 24.90625 19.578125 25.210938 19.449219 25.414063 19.210938 C 25.617188 18.96875 25.695313 18.648438 25.625 18.34375 C 25.472656 17.695313 25.375 17.007813 25.375 16.3125 C 25.375 11.414063 29.320313 7.46875 34.21875 7.46875 Z "/>
</g>
</svg>

<svg xmlns="http://www.w3.org/2000/svg" viewBox="0 0 50 50" width="50" height="50" fill="#fff"><path d="M34.219 5.469c-5.98 0-10.844 4.863-10.844 10.843 0 .36.09.711.125 1.063-7.395-.707-13.934-4.27-18.375-9.719a1.005 1.005 0 0 0-.863-.379.995.995 0 0 0-.793.504A10.758 10.758 0 0 0 2 13.22c0 2.402.86 4.601 2.188 6.406-.258-.113-.54-.176-.782-.313a.997.997 0 0 0-1.469.875v.125c0 3.684 1.907 6.883 4.72 8.844-.032-.004-.063.008-.095 0a1 1 0 0 0-1.125 1.282c1.118 3.472 3.97 6.125 7.5 7.093-2.812 1.672-6.074 2.657-9.593 2.657-.762 0-1.492-.04-2.219-.126a.998.998 0 0 0-1.074.657.997.997 0 0 0 .418 1.187A28.84 28.84 0 0 0 16.094 46.5c9.332 0 16.652-3.898 21.562-9.469 4.91-5.57 7.469-12.804 7.469-19.562 0-.285-.023-.563-.031-.844 1.832-1.402 3.468-3.047 4.75-4.969a.998.998 0 0 0-.067-1.21.996.996 0 0 0-1.183-.258c-.516.23-1.117.253-1.657.437.711-.95 1.32-1.973 1.688-3.125a1.005 1.005 0 0 0-.336-1.086 1.002 1.002 0 0 0-1.133-.07C45.45 7.355 43.56 8.066 41.563 8.5c-1.938-1.813-4.489-3.031-7.344-3.031zm0 2c2.55 0 4.855 1.09 6.468 2.812.243.25.598.356.938.281a20.581 20.581 0 0 0 3.75-1.124 8.903 8.903 0 0 1-2.563 2.343.998.998 0 0 0-.503 1.23.998.998 0 0 0 1.16.645c1-.12 1.89-.527 2.843-.781a18.992 18.992 0 0 1-2.812 2.5.997.997 0 0 0-.406.875c.015.406.031.809.031 1.219 0 6.25-2.398 13.035-6.969 18.218-4.57 5.184-11.281 8.813-20.062 8.813-3.989 0-7.754-.883-11.157-2.438 4.22-.324 8.11-1.816 11.25-4.28A.999.999 0 1 0 15.594 36c-3.296-.06-6.058-1.978-7.53-4.688h.156c.988 0 1.965-.125 2.875-.375.437-.13.738-.536.722-.993a1.004 1.004 0 0 0-.785-.945c-3.558-.719-6.226-3.617-6.844-7.219 1.008.348 2.04.621 3.157.657a1 1 0 0 0 .593-1.844A8.855 8.855 0 0 1 4 13.219c0-1.14.297-2.188.688-3.188 5 5.489 12 9.133 19.906 9.531.312.016.617-.113.82-.351a1 1 0 0 0 .211-.867 8.925 8.925 0 0 1-.25-2.032 8.826 8.826 0 0 1 8.844-8.843z"/></svg>
